!!!COM: Martinů, Bohuslav (Jan)
!!!OTL: [T503_Mau-w97p4-5h10m1-h11m2]
**kern	**dynam	**kern	**dynam
*grp:A	*grp:A	*grp:B	*grp:B
*part2	*part2	*part1	*part1
*staff2	*	*staff1	*
*I"Viola	*	*I"Violin I	*
*I'Vla.	*	*I'Vln. I	*
!!pagebreak:original
*clefG2	*	*clefG2	*
*k[]	*	*k[]	*
*C:	*	*C:	*
*M6/8	*	*M6/8	*
!!LO:REH:t=10
=101	=101	=101	=101
!	!	!LO:TX:t=[[quarter-dot]=53]	!
!	!	!	!LO:DY:ed=brack
4%3r	.	4a-X~	f
.	.	([8f	.
.	.	8fL]	.
.	.	8e-X)	.
.	.	[8a-J	> ]
=102	=102	=102	=102
4cc~	p	4a-]	p
(8c	.	([8f	.
4.cc)	.	8fL]	.
.	.	8en)	.
.	.	[8a-XJ	.
=103	=103	=103	=103
4c	.	8a-]	.
.	.	(4f	.
(8ee-X	.	.	.
8ee-L)	.	8e-X)	.
8a-X	.	4a-X~	.
[8ffJ	.	.	.
=104	=104	=104	=104
8ff]	.	(4f	.
4cc~	.	.	.
.	.	8e-X)	.
(>8c	<	4b-X	.
4cc)	.	.	.
.	.	[8a-X	<
=105	=105	=105	=105
(>8f	.	8a-L]	.
4a-X	[	(8cc	.
.	.	[8aa-XJ	[
4cc)	.	8aa-])	.
.	.	4ff~	.
(8c	.	.	.
!!linebreak:original
=106	=106	=106	=106
4e)	.	(8ee	.
.	.	4cc)	.
[8cc	.	.	.
8cc]	.	4c~	.
4c	.	.	.
.	.	([8B-X	.
=107	=107	=107	=107
(4.dd-X	.	8B-L]	.
.	.	8A-X)	.
.	.	[8c~J	.
4b-X)	>	8c]	.
.	.	(4B-X	>
(<8g	]	.	.
=108	=108	=108	=108
4b-X)	.	8A-X)	.
.	.	4d-X~	]
[8g	.	.	.
8gL]	.	4c~	.
(8e	.	.	.
[8gJ	.	(8Bn	.
=109	=109	=109	=109
4g])	p	4en)	p
(4G	.	([8e-X	.
.	.	8e-]	.
4g)	.	4en)	.
!!linebreak:original
*clefC3	*	*	*
=110	=110	=110	=110
(>8G	.	(8e-X	.
4g)	.	4en)	.
4Gv	.	(4e-X	.
[8gu	.	[8en	.
!!LO:REH:t=11
=111	=111	=111	=111
8gL]	.	8eL])	.
(8g#Xv	<	(8f	<
[8aJ	.	[8f#XJ	.
8a])	.	8f#])	.
(>4A	[	(4fn	[
=112	=112	=112	=112
4a)	f	4f#X)	f
(>8A	.	(8fn	.
8a)	.	4f#X)	.
4b-X~	.	.	.
.	.	([8g	.
=113	=113	=113	=113
(8B-XL	<	8gL]	<
8Bn)	.	8a-X	.
([8bnJ	.	8gJ)	.
8bL]	.	(8a-L	.
8ccJ)	[	8anJ)	[
8r	.	8r	.
*clefG2	*	*	*
=	=	=	=
*-	*-	*-	*-
!!!system-decoration: [(s1,s2)]
!!!RDF**kern: > = above
!!!RDF**kern: < = below
!!!EED: Daniel Wright
!!!EEV: 2021/08/06
!!!EED2: Rafael Laurindo
!!!EEV2: 2022/02/06
